public/img/workshop-about-2.svg

<svg width="163" height="163" viewBox="0 0 163 163" fill="none" xmlns="http://www.w3.org/2000/svg">
<path d="M113.031 138.983H97.2205C97.0265 129.949 97.8609 116.909 101.115 112.751C102.731 110.686 105.691 109.294 110.165 108.495C115.75 107.496 119.819 102.51 119.649 96.8845C119.647 96.8273 119.646 96.7614 119.641 96.6892C119.289 86.9755 116.347 73.7499 104.366 65.7549C101.037 63.5338 97.7365 62.2206 95.12 61.4483C104.762 47.841 107.325 30.9095 101.358 17.9177C96.1236 6.52264 85.1066 0 71.1374 0C71.0031 0 70.8663 0 70.7307 0C56.7366 0 45.7196 6.52264 40.4853 17.9152C34.5186 30.907 37.0804 47.8397 46.7219 61.4496C44.1054 62.2218 40.8049 63.5338 37.4771 65.7549C25.4677 73.7673 22.5391 87.0327 22.1971 96.7514C22.1958 96.7875 22.1946 96.8235 22.1933 96.8584C22.0093 102.494 26.0821 107.495 31.677 108.495C36.1502 109.293 39.1099 110.686 40.7253 112.751C43.9748 116.904 44.8118 129.945 44.619 138.983H28.8093C22.5428 138.983 17.4453 144.08 17.4453 150.346V159.816C17.4453 161.575 18.8705 163 20.6289 163H121.213C122.97 163 124.397 161.575 124.397 159.816V150.346C124.397 144.08 119.298 138.983 113.031 138.983ZM46.2718 20.574C50.4813 11.4075 59.1616 6.36719 70.7543 6.36719H71.1137C82.6779 6.36719 91.3607 11.4087 95.5702 20.5752C101.142 32.704 97.7092 49.1318 87.0292 61.4558C87.0267 61.4595 87.023 61.4645 87.0193 61.4682C82.8906 66.2324 77.8354 70.2492 71.993 73.4067C71.3214 73.7698 70.5193 73.7698 69.8453 73.4055C64.0041 70.2492 58.9477 66.2324 54.8177 61.4657C54.8177 61.4645 54.8177 61.4645 54.8177 61.4645L54.8165 61.4633C44.134 49.1368 40.6992 32.704 46.2718 20.574ZM118.029 156.633H23.8125V150.346C23.8125 147.591 26.0535 145.35 28.8093 145.35H47.6235H47.6919H47.769H58.1866C59.9438 145.35 61.3702 143.925 61.3702 142.166C61.3702 140.408 59.9438 138.983 58.1866 138.983H50.985C51.1305 131.704 50.8482 115.354 45.7407 108.828C43.1155 105.473 38.8811 103.314 32.7974 102.227C30.2941 101.78 28.4722 99.5594 28.5568 97.0623C28.5593 97.0275 28.5605 96.9939 28.5618 96.9591C29.4273 72.5561 46.1598 67.7894 51.1466 66.9102C55.5577 71.7017 60.823 75.767 66.8184 79.0066C68.1043 79.7018 69.5132 80.0487 70.9222 80.0487C72.3312 80.0487 73.7402 79.7018 75.0224 79.0066C81.0177 75.767 86.2831 71.703 90.6941 66.9102C92.5943 67.246 96.1858 68.1426 99.9576 70.4631C95.3203 72.7812 92.7647 77.1387 92.7572 82.7473V82.7772C92.756 85.528 91.5708 87.4095 89.0289 88.6954C87.4608 89.4888 86.8327 91.4052 87.6262 92.9734C88.187 94.0814 89.3075 94.7206 90.469 94.7206C90.9528 94.7206 91.444 94.6099 91.9041 94.3774C95.5466 92.5331 97.8659 89.7251 98.7352 86.1498C99.8258 86.36 101.016 86.7616 101.844 87.5003C102.345 87.9493 103.019 88.7514 103.088 90.5347C103.152 92.2508 104.564 93.5977 106.266 93.5977C106.307 93.5977 106.348 93.5977 106.389 93.5964C108.147 93.5293 109.517 92.0506 109.45 90.2934C109.333 87.223 108.17 84.6164 106.087 82.7535C104.083 80.9615 101.598 80.1644 99.5559 79.8199C100.092 78.2182 101.128 77.0293 102.685 76.2197C103.753 75.6651 104.859 75.3877 105.676 75.251C109.669 79.7403 112.916 86.5776 113.28 96.979C113.281 96.9964 113.281 97.0138 113.283 97.0325V97.0586C113.37 99.5582 111.548 101.78 109.045 102.228C102.958 103.315 98.7252 105.474 96.1012 108.828C90.9926 115.356 90.709 131.705 90.857 138.983H83.6554C81.8969 138.983 80.4718 140.408 80.4718 142.166C80.4718 143.925 81.8969 145.35 83.6554 145.35H94.0617C94.0903 145.351 94.1189 145.351 94.1488 145.351C94.1774 145.351 94.206 145.351 94.2346 145.35H113.033C115.787 145.35 118.029 147.592 118.029 150.346V156.633Z" fill="#715F7A"/>
<path d="M149.231 27.2745L149.047 27.0519C147.094 24.6381 143.809 23.6905 140.872 24.6891L135.293 26.5806L134.635 24.6431C133.499 21.2953 130.362 19.0444 126.829 19.0444C125.936 19.0444 125.046 19.1924 124.18 19.4834C119.874 20.9434 117.557 25.6355 119.017 29.942L119.672 31.8771L114.091 33.7698C111.154 34.7696 109.124 37.5267 109.041 40.6481L109.035 40.9329C109.027 41.2003 109.023 41.4664 109.023 41.7338C109.023 49.005 111.568 56.0997 116.182 61.7033C117.615 63.4543 119.761 64.4231 121.954 64.4231C122.75 64.4231 123.551 64.2962 124.327 64.0326L129.934 62.1311L136.925 82.7449C137.632 84.8329 139.111 86.5192 141.087 87.4942C142.239 88.0613 143.477 88.3473 144.724 88.3473C145.619 88.3473 146.515 88.2005 147.386 87.9046C149.471 87.197 151.156 85.7196 152.131 83.746C153.106 81.7699 153.254 79.534 152.547 77.446L145.554 56.8334L151.165 54.9307C152.603 54.4408 153.841 53.5379 154.745 52.3204C155.651 51.103 156.158 49.6567 156.213 48.1383C156.213 48.137 156.213 48.1345 156.213 48.1333C156.47 40.5785 153.998 33.1778 149.231 27.2745ZM125.047 27.8976C124.714 26.9164 125.242 25.8469 126.22 25.5161C126.424 25.4464 126.629 25.4116 126.83 25.4116C127.633 25.4116 128.348 25.9252 128.606 26.69L129.264 28.6251L127.333 29.2804L125.702 29.8326L125.047 27.8976ZM146.516 79.4917C146.678 79.9667 146.643 80.4766 146.422 80.9268C146.199 81.3782 145.815 81.714 145.339 81.8756C145.338 81.8756 145.336 81.8756 145.336 81.8769C144.861 82.0386 144.353 82.005 143.904 81.7836C143.452 81.561 143.117 81.1767 142.955 80.7004L135.963 60.0867L137.091 59.7037L139.524 58.8792L146.516 79.4917ZM149.849 47.9132C149.841 48.1358 149.767 48.3459 149.634 48.5238C149.502 48.7016 149.321 48.8334 149.114 48.9031L140.567 51.8019C140.542 51.8093 140.517 51.818 140.493 51.8267L135.449 53.5379L122.281 58.0037C121.861 58.1467 121.388 58.0124 121.102 57.6629C117.419 53.1897 115.391 47.5326 115.391 41.735C115.391 41.5248 115.394 41.3134 115.399 41.0858L115.406 40.8011C115.418 40.3397 115.708 39.9467 116.139 39.8L124.673 36.9049C124.693 36.8987 124.713 36.8925 124.732 36.8862L130.316 34.9922L142.92 30.718C143.033 30.6795 143.149 30.6621 143.263 30.6621C143.583 30.6621 143.894 30.8038 144.101 31.0613C144.108 31.0687 144.114 31.0774 144.121 31.0861L144.294 31.2963C148.082 35.9871 150.055 41.888 149.849 47.9132Z" fill="#715F7A"/>
<path d="M22.5462 52.7034C25.7112 52.7034 28.7082 50.7933 29.9344 47.6744L33.8965 37.5876C34.9548 34.8915 33.6229 31.8372 30.928 30.7789L24.1517 28.1176C21.4556 27.0593 18.4013 28.39 17.343 31.0861L13.381 41.1729C12.0652 44.5256 13.1969 48.2452 15.9129 50.3444L7.22518 72.4641C6.58224 74.1007 7.38809 75.9474 9.02466 76.5904C9.40644 76.7408 9.80066 76.8117 10.1874 76.8117C11.4584 76.8117 12.6584 76.0457 13.1509 74.7909L21.8386 52.6724C22.0749 52.6935 22.3112 52.7034 22.5462 52.7034ZM21.8249 34.0446C21.8249 34.0446 21.8249 34.0434 21.8237 34.0434L21.8249 34.0446ZM19.3079 43.5009L22.8621 34.4513L27.5616 36.2967L24.0074 45.3464C23.6928 46.1472 22.7862 46.5427 21.9841 46.2281L20.1896 45.5229C19.3887 45.2083 18.9933 44.3017 19.3079 43.5009Z" fill="#715F7A"/>
<path d="M70.0392 56.8782H73.9404C75.6988 56.8782 77.1239 55.453 77.1239 53.6946C77.1239 51.9374 75.6988 50.511 73.9404 50.511H71.1895L72.1583 40.6679C72.3299 38.9182 71.0515 37.3612 69.3018 37.1884C67.5495 37.0155 65.9926 38.2952 65.8209 40.0449L64.7403 51.0333C64.5935 52.5256 65.0872 54.0191 66.0945 55.1297C67.1018 56.2414 68.5394 56.8782 70.0392 56.8782Z" fill="#715F7A"/>
<path d="M70.9258 138.983C69.1673 138.983 67.7422 140.408 67.7422 142.166C67.7422 143.925 69.1673 145.35 70.9258 145.35H70.9332C72.6917 145.35 74.1131 143.925 74.1131 142.166C74.1131 140.408 72.683 138.983 70.9258 138.983Z" fill="#715F7A"/>
</svg>

<svg width="163" height="163" fill="none" xmlns="http://www.w3.org/2000/svg"><path d="M113.031 138.983h-15.81c-.195-9.034.64-22.074 3.894-26.232 1.616-2.065 4.576-3.457 9.05-4.256 5.585-.999 9.654-5.985 9.484-11.61-.002-.058-.003-.124-.008-.196-.352-9.713-3.294-22.94-15.275-30.934a34.15 34.15 0 00-9.246-4.307c9.642-13.607 12.205-30.538 6.238-43.53C96.124 6.523 85.107 0 71.138 0h-.407C56.737 0 45.72 6.523 40.485 17.915 34.52 30.907 37.08 47.84 46.722 61.45a34.11 34.11 0 00-9.245 4.305c-12.01 8.012-14.938 21.278-15.28 30.996l-.004.107c-.184 5.636 3.89 10.637 9.484 11.637 4.473.798 7.433 2.191 9.048 4.256 3.25 4.153 4.087 17.194 3.894 26.232h-15.81c-6.266 0-11.364 5.097-11.364 11.363v9.47A3.183 3.183 0 0020.63 163h100.584a3.185 3.185 0 003.184-3.184v-9.47c0-6.266-5.099-11.363-11.366-11.363zM46.271 20.574c4.21-9.167 12.89-14.207 24.483-14.207h.36c11.564 0 20.247 5.042 24.456 14.208 5.572 12.129 2.14 28.557-8.54 40.88a.09.09 0 01-.01.013c-4.13 4.764-9.185 8.781-15.027 11.939a2.25 2.25 0 01-2.148-.001c-5.84-3.157-10.897-7.174-15.027-11.94v-.002h-.002c-10.682-12.327-14.117-28.76-8.544-40.89zm71.758 136.059H23.813v-6.287a5.002 5.002 0 014.996-4.996h29.378a3.184 3.184 0 000-6.367h-7.202c.145-7.279-.137-23.629-5.244-30.155-2.626-3.355-6.86-5.514-12.944-6.601-2.503-.447-4.325-2.668-4.24-5.165l.005-.103c.865-24.403 17.598-29.17 22.585-30.049 4.41 4.792 9.676 8.857 15.671 12.097a8.594 8.594 0 008.204 0c5.996-3.24 11.261-7.304 15.672-12.097 1.9.336 5.492 1.233 9.264 3.553-4.638 2.318-7.193 6.676-7.2 12.284v.03c-.002 2.751-1.187 4.632-3.73 5.918a3.184 3.184 0 002.876 5.682c3.643-1.844 5.962-4.652 6.831-8.227 1.09.21 2.281.612 3.109 1.35.501.45 1.175 1.251 1.244 3.035a3.182 3.182 0 003.178 3.063c.041 0 .082 0 .123-.002a3.184 3.184 0 003.061-3.303c-.117-3.07-1.28-5.677-3.363-7.54-2.004-1.791-4.489-2.589-6.531-2.933.536-1.602 1.572-2.79 3.129-3.6 1.068-.555 2.174-.832 2.991-.969 3.993 4.49 7.24 11.327 7.604 21.728l.003.053v.027c.087 2.5-1.735 4.721-4.238 5.169-6.087 1.087-10.32 3.246-12.944 6.6-5.108 6.528-5.392 22.877-5.244 30.155h-7.202a3.183 3.183 0 100 6.367h10.407l.087.001.086-.001h18.798a5.003 5.003 0 014.996 4.996v6.287z" fill="#715F7A"/><path d="M149.231 27.274l-.184-.222a7.463 7.463 0 00-8.175-2.363l-5.579 1.892-.658-1.938a8.243 8.243 0 00-7.806-5.599c-.893 0-1.783.148-2.649.44-4.306 1.46-6.623 6.151-5.163 10.458l.655 1.935-5.581 1.893a7.492 7.492 0 00-5.05 6.878l-.006.285a31.496 31.496 0 007.147 20.77 7.47 7.47 0 008.145 2.33l5.607-1.902 6.991 20.614a8.192 8.192 0 004.162 4.75 8.214 8.214 0 006.299.41 8.197 8.197 0 004.745-4.159 8.199 8.199 0 00.416-6.3l-6.993-20.613 5.611-1.902a7.42 7.42 0 003.58-2.61 7.424 7.424 0 001.468-4.183v-.005a31.488 31.488 0 00-6.982-20.859zm-24.184.624a1.88 1.88 0 011.173-2.382 1.875 1.875 0 012.386 1.174l.658 1.935-1.931.655-1.631.553-.655-1.935zm21.469 51.594c.162.475.127.985-.094 1.435a1.868 1.868 0 01-1.086.95 1.86 1.86 0 01-1.432-.093 1.866 1.866 0 01-.949-1.084l-6.992-20.613 1.128-.383 2.433-.825 6.992 20.613zm3.333-31.579a1.077 1.077 0 01-.215.61 1.07 1.07 0 01-.52.38l-8.547 2.899a1.31 1.31 0 00-.074.025l-5.044 1.71-13.168 4.467a1.08 1.08 0 01-1.179-.341 25.118 25.118 0 01-5.703-16.577l.007-.285c.012-.461.302-.854.733-1.001l8.534-2.895.059-.019 5.584-1.894 12.604-4.274a1.074 1.074 0 011.181.343l.02.025.173.21a25.09 25.09 0 015.555 16.617zm-127.303 4.79c3.165 0 6.162-1.91 7.388-5.029l3.963-10.086a5.259 5.259 0 00-2.969-6.81l-6.776-2.66a5.258 5.258 0 00-6.809 2.968l-3.962 10.087c-1.316 3.353-.184 7.072 2.532 9.171l-8.688 22.12a3.183 3.183 0 105.926 2.327l8.688-22.119c.236.022.472.031.707.031zm-.721-18.658l-.001-.002v.002zM19.308 43.5l3.554-9.05 4.7 1.846-3.555 9.05a1.562 1.562 0 01-2.023.881l-1.794-.705a1.561 1.561 0 01-.882-2.022zM70.04 56.878h3.9a3.183 3.183 0 100-6.367h-2.75l.968-9.843a3.184 3.184 0 00-6.337-.623l-1.08 10.988a5.332 5.332 0 001.353 4.097 5.332 5.332 0 003.945 1.748zm.886 82.105a3.183 3.183 0 100 6.367h.007a3.18 3.18 0 003.18-3.184 3.187 3.187 0 00-3.187-3.183z" fill="#715F7A"/></svg>
